img/clumzy-logo.svg

<svg xmlns="http://www.w3.org/2000/svg" width="108" height="141" viewBox="0 0 108 141"><g fill="#000000" fill-rule="evenodd"><path d="M56.3719873,0.415346841 C56.2789873,0.391346841 56.1869873,0.368346841 56.0949873,0.348346841 C38.9439873,-3.46665316 33.7559873,25.0673468 29.9149873,36.4193468 C24.3599873,52.8383468 17.5539873,67.4233468 8.91398727,82.4723468 C-0.867012731,99.5083468 -5.02301273,112.377347 9.21398727,129.174347 C13.8569873,134.651347 19.1539873,137.857347 24.8249873,139.349347 C47.0369873,145.194347 75.0149873,124.775347 92.2029873,111.815347 C109.447987,98.8113468 108.102987,83.6883468 107.544987,62.5723468 C107.134987,47.0943468 107.818987,34.0043468 94.4849873,24.1063468 C87.9089873,19.2263468 79.6949873,16.4673468 72.7229873,12.0733468 C68.0269873,9.11434684 61.5059873,1.76634684 56.3719873,0.415346841 M54.7109873,6.72734684 C56.5019873,7.19834684 60.2199873,10.3723468 62.6799873,12.4723468 C64.9559873,14.4143468 67.1049873,16.2483468 69.2429873,17.5953468 C72.5629873,19.6873468 76.0349873,21.3903468 79.3929873,23.0373468 C83.4869873,25.0453468 87.3529873,26.9413468 90.5949873,29.3473468 C95.1199873,32.7063468 97.7839873,36.5123468 99.2329873,41.6863468 C100.666987,46.8043468 100.795987,52.7113468 100.944987,59.5523468 C100.967987,60.6053468 100.991987,61.6693468 101.019987,62.7453468 C101.047987,63.7873468 101.076987,64.8143468 101.105987,65.8283468 C101.372987,75.1233468 101.602987,83.1513468 99.9419873,89.8403468 C98.2579873,96.6183468 94.6599873,101.788347 88.2729873,106.603347 C79.2069873,113.440347 68.6009873,121.203347 57.4659873,126.803347 C45.0039873,133.070347 34.5799873,135.167347 26.4849873,133.037347 C21.7739873,131.797347 17.7529873,129.153347 14.1929873,124.954347 C8.52098727,118.262347 6.16998727,112.519347 6.56998727,106.334347 C6.99798727,99.7263468 10.6699873,92.5213468 14.5749873,85.7213468 C23.7929873,69.6643468 30.6329873,54.6633468 36.0969873,38.5113468 C36.7029873,36.7213468 37.3249873,34.5863468 37.9829873,32.3263468 C39.8109873,26.0523468 42.0849873,18.2443468 45.4379873,12.6573468 C46.9549873,10.1313468 48.5139873,8.36234684 50.0739873,7.39834684 C51.4759873,6.53234684 52.8949873,6.32334684 54.6779873,6.71934684 L54.7109873,6.72734684"/><path d="M46.7904873 31.9124468C49.2894873 24.9594468 56.0384873 21.0524468 63.4894873 23.7294468 65.5064873 24.4544468 67.7514873 25.8374468 69.4824873 28.1344468 70.3114873 29.3214468 69.9184873 30.5414468 68.7204873 31.4194468L67.7274873 32.1094468C66.5464873 32.9404468 65.7064873 32.6914468 64.7294873 31.6604468 63.6374873 30.4304468 62.3534873 29.8644468 61.7774873 29.6574468 58.1964873 28.3704468 54.6204873 30.1724468 53.2204873 34.0664468 51.8214873 37.9594468 53.4314873 41.6264468 57.0134873 42.9134468 57.5894873 43.1204468 58.9404873 43.5014468 60.5644873 43.2484468 61.9754873 43.0754468 62.8224873 43.4324468 63.1634873 44.8104468L63.4894873 45.9744468C63.8554873 47.4144468 63.2074873 48.6994468 61.5494873 49.0454468 58.9664873 49.6354468 56.4954873 49.2704468 54.5604873 48.5754468 47.1914873 45.9274468 44.3414873 38.7264468 46.7904873 31.9124468M79.2430873 60.8865468L77.9820873 34.9265468C77.9200873 33.6425468 78.6250873 32.8745468 79.9730873 32.7575468L82.4960873 32.5365468C83.8450873 32.4195468 84.6620873 33.0555468 84.7240873 34.3395468L85.9850873 60.2995468C86.0480873 61.5825468 85.2990873 62.3545468 83.9510873 62.4715468L81.4280873 62.6925468C80.0790873 62.8095468 79.3050873 62.1705468 79.2430873 60.8865468M32.9940873 63.5843468L38.6600873 52.7623468C39.3680873 51.4093468 40.4160873 51.0133468 41.6170873 51.6413468L43.9030873 52.8383468C45.1040873 53.4673468 45.3740873 54.5543468 44.6660873 55.9063468L39.2520873 66.2493468C37.6070873 69.3903468 37.7100873 71.8343468 39.7640873 72.9103468 41.7790873 73.9653468 44.9080873 73.2693468 47.1010873 69.0793468L51.9900873 59.7413468C52.6990873 58.3883468 53.7450873 57.9913468 54.9470873 58.6203468L57.1940873 59.7973468C58.3960873 60.4263468 58.7050873 61.5333468 57.9970873 62.8863468L48.4470873 81.1263468C47.7390873 82.4793468 46.6530873 82.8553468 45.4520873 82.2263468L43.2040873 81.0493468C42.0030873 80.4203468 41.7320873 79.3343468 42.4410873 77.9813468L43.1950873 76.5413468C40.8620873 78.5453468 37.9930873 78.9333468 35.0090873 77.3713468 29.7000873 74.5913468 30.2300873 68.8643468 32.9940873 63.5843468M57.8006873 88.2132468L61.1066873 67.8912468C61.3516873 66.3842468 62.2196873 65.6772468 63.5576873 65.8952468L66.1056873 66.3092468C67.4436873 66.5272468 68.0436873 67.4722468 67.7976873 68.9802468L67.5296873 70.6332468C68.8596873 67.9042468 71.5026873 66.6382468 74.2656873 67.0882468 76.8136873 67.5022468 79.0756873 69.1172468 79.9946873 72.4612468 82.6676873 69.1032468 85.3176873 68.8852468 87.8216873 69.2932468 93.5636873 70.2262468 95.1196873 75.9192468 94.1626873 81.8012468L92.2096873 93.8102468C91.9646873 95.3172468 91.0526873 96.0172468 89.7146873 95.7992468L87.2106873 95.3922468C85.8726873 95.1742468 85.2726873 94.2282468 85.5176873 92.7212468L87.4156873 81.0532468C87.9856873 77.5532468 87.0846873 75.4602468 85.0986873 75.1372468 83.2416873 74.8352468 80.9366873 76.2072468 80.1066873 80.7632468L78.3506873 91.5562468C78.1056873 93.0632468 77.2376873 93.7702468 75.8996873 93.5522468L73.3526873 93.1382468C72.0136873 92.9202468 71.4146873 91.9742468 71.6596873 90.4672468L73.5566873 78.7992468C74.1266873 75.2992468 73.2696873 73.2132468 71.2826873 72.8902468 69.2976873 72.5672468 66.9676873 74.0852468 66.2086873 78.7522468L64.4926873 89.3022468C64.2476873 90.8082468 63.3796873 91.5162468 62.0406873 91.2982468L59.4936873 90.8842468C58.1556873 90.6662468 57.5556873 89.7202468 57.8006873 88.2132468M14.2718873 101.190247L14.4138873 100.931247C14.9808873 99.8942468 15.6138873 99.2862468 16.7148873 98.8222468L33.3518873 92.2072468 24.7968873 87.5232468C23.6068873 86.8722468 23.3568873 85.7802468 24.0908873 84.4412468L24.6578873 83.4042468C25.3918873 82.0652468 26.4458873 81.6882468 27.6348873 82.3392468L42.8278873 90.6572468C44.0178873 91.3092468 44.2678873 92.4002468 43.5348873 93.7392468L43.3688873 94.0422468C42.8008873 95.0792468 42.1678873 95.6872468 41.0668873 96.1512468L24.4918873 102.743247 34.1598873 108.037247C35.3498873 108.688247 35.6378873 109.800247 34.9048873 111.140247L34.3368873 112.176247C33.5648873 113.495247 32.5108873 113.872247 31.3218873 113.221247L14.9778873 104.272247C13.7888873 103.621247 13.5388873 102.529247 14.2718873 101.190247M34.2743873 120.858747L43.6813873 115.858747 51.3513873 94.8287468C51.9473873 93.1797468 53.2563873 92.7657468 54.4303873 93.8167468L56.6463873 95.7997468C57.5583873 96.6167468 57.7833873 97.6107468 57.1903873 98.8647468L51.4463873 112.167747 64.0663873 105.019747C65.2793873 104.320747 66.2933873 104.434747 67.1723873 105.222747L69.2913873 107.118747C70.4643873 108.168747 70.1983873 109.450747 68.6253873 110.290747L38.3103873 125.727747C37.0983873 126.360747 36.1503873 126.238747 35.2703873 125.451747L33.6403873 123.993747C32.4673873 122.942747 32.7333873 121.660747 34.2743873 120.858747"/></g></svg>

<svg height="141" viewBox="0 0 108 141" width="108" xmlns="http://www.w3.org/2000/svg"><g fill="#0A0A0A" fill-rule="evenodd"><path d="m56.3719873.41534684c-.093-.024-.185-.047-.277-.067-17.151-3.815-22.339 24.71899996-26.18 36.07099996-5.555 16.419-12.361 31.004-21.00100003 46.053-9.781 17.036-13.937 29.9050002.3 46.7020002 4.64300003 5.477 9.94000003 8.683 15.61100003 10.175 22.212 5.845 50.19-14.574 67.378-27.534 17.2449997-13.0040002 15.8999997-28.1270002 15.3419997-49.2430002-.41-15.478.274-28.568-13.0599997-38.466-6.576-4.88-14.79-7.639-21.762-12.033-4.696-2.95899996-11.217-10.30699996-16.351-11.65799996m-1.661 6.312c1.791.471 5.509 3.64499996 7.969 5.74499996 2.276 1.942 4.425 3.776 6.563 5.123 3.32 2.092 6.792 3.795 10.15 5.442 4.094 2.008 7.96 3.904 11.202 6.31 4.525 3.359 7.189 7.165 8.638 12.339 1.4339997 5.118 1.5629997 11.025 1.7119997 17.866.023 1.053.047 2.117.075 3.193.028 1.042.057 2.069.086 3.083.267 9.295.497 17.323-1.1639997 24.012-1.684 6.778-5.282 11.9480002-11.669 16.7630002-9.066 6.837-19.672 14.6-30.807 20.2-12.462 6.267-22.886 8.364-30.981 6.234-4.711-1.24-8.732-3.884-12.292-8.083-5.67200003-6.692-8.02300003-12.435-7.62300003-18.62.428-6.6080002 4.10000003-13.8130002 8.00500003-20.6130002 9.218-16.057 16.058-31.058 21.522-47.21.606-1.79 1.228-3.925 1.886-6.185 1.828-6.274 4.102-14.082 7.455-19.669 1.517-2.526 3.076-4.29499996 4.636-5.25899996 1.402-.866 2.821-1.075 4.604-.679z"/><path d="m46.7904873 31.9124468c2.499-6.953 9.248-10.86 16.699-8.183 2.017.725 4.262 2.108 5.993 4.405.829 1.187.436 2.407-.762 3.285l-.993.69c-1.181.831-2.021.582-2.998-.449-1.092-1.23-2.376-1.796-2.952-2.003-3.581-1.287-7.157.515-8.557 4.409-1.399 3.893.211 7.56 3.793 8.847.576.207 1.927.588 3.551.335 1.411-.173 2.258.184 2.599 1.562l.326 1.164c.366 1.44-.282 2.725-1.94 3.071-2.583.59-5.054.225-6.989-.47-7.369-2.648-10.219-9.849-7.77-16.663m32.4526 28.9741-1.261-25.96c-.062-1.284.643-2.052 1.991-2.169l2.523-.221c1.349-.117 2.166.519 2.228 1.803l1.261 25.96c.063 1.283-.686 2.055-2.034 2.172l-2.523.221c-1.349.117-2.123-.522-2.185-1.806m-46.249 2.6978 5.666-10.822c.708-1.353 1.756-1.749 2.957-1.121l2.286 1.197c1.201.629 1.471 1.716.763 3.068l-5.414 10.343c-1.645 3.141-1.542 5.585.512 6.661 2.015 1.055 5.144.359 7.337-3.831l4.889-9.338c.709-1.353 1.755-1.75 2.957-1.121l2.247 1.177c1.202.629 1.511 1.736.803 3.089l-9.55 18.24c-.708 1.353-1.794 1.729-2.995 1.1l-2.248-1.177c-1.201-.629-1.472-1.715-.763-3.068l.754-1.44c-2.333 2.004-5.202 2.392-8.186.83-5.309-2.78-4.779-8.507-2.015-13.787m24.8066 24.6289 3.306-20.322c.245-1.507 1.113-2.214 2.451-1.996l2.548.414c1.338.218 1.938 1.163 1.692 2.671l-.268 1.653c1.33-2.729 3.973-3.995 6.736-3.545 2.548.414 4.81 2.029 5.729 5.373 2.673-3.358 5.323-3.576 7.827-3.168 5.742.933 7.298 6.626 6.341 12.508l-1.953 12.009c-.245 1.507-1.157 2.207-2.495 1.989l-2.504-.407c-1.338-.218-1.938-1.164-1.693-2.671l1.898-11.668c.57-3.5-.331-5.593-2.317-5.916-1.857-.302-4.162 1.07-4.992 5.626l-1.756 10.793c-.245 1.507-1.113 2.214-2.451 1.996l-2.547-.414c-1.339-.218-1.938-1.164-1.693-2.671l1.897-11.668c.57-3.5-.287-5.586-2.274-5.909-1.985-.323-4.315 1.195-5.074 5.862l-1.716 10.55c-.245 1.506-1.113 2.214-2.452 1.996l-2.547-.414c-1.338-.218-1.938-1.164-1.693-2.671m-43.5288 12.9770002.142-.259c.567-1.0370002 1.2-1.6450002 2.301-2.1090002l16.637-6.615-8.555-4.684c-1.19-.651-1.44-1.743-.706-3.082l.567-1.037c.734-1.339 1.788-1.716 2.977-1.065l15.193 8.318c1.19.652 1.44 1.743.707 3.082l-.166.303c-.568 1.037-1.201 1.645-2.302 2.109l-16.575 6.5920002 9.668 5.294c1.19.651 1.478 1.763.745 3.103l-.568 1.036c-.772 1.319-1.826 1.696-3.015 1.045l-16.344-8.949c-1.189-.651-1.439-1.743-.706-3.082m20.0025 19.6685 9.407-5 7.67-21.0300002c.596-1.649 1.905-2.063 3.079-1.012l2.216 1.983c.912.817 1.137 1.811.544 3.065l-5.744 13.3030002 12.62-7.148c1.213-.699 2.227-.585 3.106.203l2.119 1.896c1.173 1.05.907 2.332-.666 3.172l-30.315 15.437c-1.212.633-2.16.511-3.04-.276l-1.63-1.458c-1.173-1.051-.907-2.333.634-3.135"/></g></svg>
